material/.icons/material/domain-off.svg

<svg xmlns="http://www.w3.org/2000/svg" viewBox="0 0 24 24"><path d="M12 19h4l-2-2h-2v2m-2-4v-2H8v2h2m0 4v-2H8v2h2m-4-8V9H4v2h2m0 4v-2H4v2h2m0 4v-2H4v2h2M1.31 1.78l21 20.91L21 24l-3-3H2V5L.09 3.09l1.22-1.31M16 11h2v2h-2v-2M8 5v.91L5.11 3H12v4h10v12.92l-2-2.01V9h-8v.89L9.09 7H10V5H8z"/></svg>

<?xml version="1.0" encoding="UTF-8"?><!DOCTYPE svg PUBLIC "-//W3C//DTD SVG 1.1//EN" "http://www.w3.org/Graphics/SVG/1.1/DTD/svg11.dtd"><svg xmlns="http://www.w3.org/2000/svg" xmlns:xlink="http://www.w3.org/1999/xlink" version="1.1" id="mdi-domain-off" width="24" height="24" viewBox="0 0 24 24"><path d="M12,19H16L14,17H12V19M10,15V13H8V15H10M10,19V17H8V19H10M6,11V9H4V11H6M6,15V13H4V15H6M6,19V17H4V19H6M1.31,1.78L22.31,22.69L21,24L18,21H2V5L0.09,3.09L1.31,1.78M16,11H18V13H16V11M8,5V5.91L5.11,3H12V7H22V19.92L20,17.91V9H12V9.89L9.09,7H10V5H8Z" /></svg>
